src/assets/images/logo.svg

<svg fill="none" height="50" viewBox="0 0 50 50" width="50" xmlns="http://www.w3.org/2000/svg"><path clip-rule="evenodd" d="m25 50c13.8071 0 25-11.1929 25-25s-11.1929-25-25-25-25 11.1929-25 25 11.1929 25 25 25zm-5.9534-14.25c1.25.5416 2.6146.8125 4.0938.8125 2.5833 0 4.5417-.6667 5.875-2 1.3333-1.3542 2-3.375 2-6.0625v-14.1875h-12.7188v4.0625h7.6876v10.4062c0 2.4167-1.0313 3.625-3.0938 3.625-1.5208 0-2.875-.8021-4.0625-2.4062l-2.8125 3.375c.7917 1.0208 1.8021 1.8125 3.0312 2.375z" fill="#1e272e" fill-rule="evenodd"/></svg>

<svg width="50" height="50" viewBox="0 0 50 50" fill="none" xmlns="http://www.w3.org/2000/svg">
<path fill-rule="evenodd" clip-rule="evenodd" d="M25 50C38.8071 50 50 38.8071 50 25C50 11.1929 38.8071 0 25 0C11.1929 0 0 11.1929 0 25C0 38.8071 11.1929 50 25 50ZM19.0466 35.75C20.2966 36.2916 21.6612 36.5625 23.1404 36.5625C25.7237 36.5625 27.6821 35.8958 29.0154 34.5625C30.3487 33.2083 31.0154 31.1875 31.0154 28.5V14.3125H18.2966V18.375H25.9842V28.7812C25.9842 31.1979 24.9529 32.4062 22.8904 32.4062C21.3696 32.4062 20.0154 31.6041 18.8279 30L16.0154 33.375C16.8071 34.3958 17.8175 35.1875 19.0466 35.75Z" fill="#1E272E"/>
</svg>
